img/social/vk.svg

<svg width="28" height="16" viewBox="0 0 28 16" fill="none" xmlns="http://www.w3.org/2000/svg">
<path d="M15.1855 15.5C6.0746 15.5 0.879792 9.8795 0.666672 0.51201H5.24876C5.39528 7.38151 8.75192 10.2878 11.4159 10.8883V0.51201H15.7183V6.43275C18.3423 6.18054 21.1129 3.47838 22.0453 0.5H26.3343C25.9846 2.04175 25.286 3.50192 24.2822 4.78927C23.2784 6.07662 21.9909 7.16349 20.5002 7.98199C22.1638 8.72853 23.6329 9.78457 24.8107 11.0805C25.9886 12.3763 26.8483 13.8826 27.3333 15.5H22.6047C21.5924 12.6537 19.0616 10.444 15.7183 10.1437V15.5H15.1988H15.1855Z" fill="white"/>
</svg>

<svg width="28" height="16" fill="none" xmlns="http://www.w3.org/2000/svg"><path d="M15.185 15.5C6.075 15.5.88 9.88.667.512h4.582c.146 6.87 3.503 9.776 6.167 10.376V.512h4.302v5.92c2.624-.251 5.395-2.954 6.327-5.932h4.29a10.9 10.9 0 0 1-2.053 4.29A12.27 12.27 0 0 1 20.5 7.981a13.01 13.01 0 0 1 4.31 3.099 11.482 11.482 0 0 1 2.523 4.419h-4.728c-1.013-2.846-3.543-5.056-6.887-5.356V15.5h-.533Z" fill="#fff"/></svg>
